svg/file-icons/Test-CoffeeScript.svg

<svg version="1.1" xmlns="http://www.w3.org/2000/svg" width="512px" height="512px"><path d="M501.3135071,441.2059937c0,23.4335938-19.1132812,38.9196777-42.546875,38.9196777h-212.733902c-23.434082,0-42.546875-15.486084-42.546875-38.9196777H501.3135071z M448.1298828,244.423996H256.6694336c-5.8168793,0-10.6367035,4.8193359-10.6367035,10.6367188v122.3222809c0,20.4423828,16.7856293,36.2279968,37.2280121,36.2279968h117.0039062c20.9401245,0,38.9959717-16.3762512,37.2285156-41.5463562C533.5662231,377.6021118,536.3162231,248.8520966,448.1298828,244.423996z M437.4931641,340.15448v-63.8203125C490.2568359,267.8689575,498.3963623,345.3977661,437.4931641,340.15448z M267.5789795,225.1707764h31.9750977l-23.8644409-37.418335V61.9749107h26.0755005c19.5045166,0,19.5045166-27.5949097,0-27.5949097H111.835083c-19.5045166,0-19.5045166,27.5949097-0.0004883,27.5949097h26.0749512v125.7775269L5.7651367,406.8970337c-12.4072876,21.1151123-4.6187134,34.3093262,21.729248,34.3093262h155.9700928v-27.5949097H33.9144897l131.9580688-218.8084717V61.9749107h81.8540649v132.828064L267.5789795,225.1707764z M218.9661713,385.906311H84.6912231l84.8234253-141.4821167h49.4515228V385.906311z"/></svg>

<svg xmlns="http://www.w3.org/2000/svg" width="512" height="512"><path d="M501.314 441.206c0 23.434-19.114 38.92-42.547 38.92H246.033c-23.434 0-42.547-15.486-42.547-38.92h297.828zM448.13 244.424H256.67c-5.817 0-10.637 4.82-10.637 10.637v122.322c0 20.442 16.785 36.228 37.228 36.228h117.004c20.94 0 38.996-16.376 37.228-41.546 96.073 5.537 98.823-123.213 10.637-127.641zm-10.637 95.73v-63.82c52.764-8.465 60.903 69.064 0 63.82zM267.58 225.171h31.975l-23.864-37.419V61.975h26.075c19.505 0 19.505-27.595 0-27.595h-189.93c-19.504 0-19.504 27.595 0 27.595h26.075v125.777L5.765 406.897c-12.407 21.115-4.619 34.31 21.73 34.31h155.97V413.61H33.914l131.958-218.808V61.975h81.854v132.828l19.852 30.368zm-48.613 160.735H84.691l84.824-141.482h49.451v141.482z"/></svg>
